;FLAVOR:Marlin
;TIME:19567
;Filament used: 48.3384m
;Layer height: 0.28
;MINX:5
;MINY:73
;MINZ:0.32
;MAXX:230
;MAXY:162
;MAXZ:52.12
;Generated with Cura_SteamEngine main
M140 S60
M105
M190 S60
M104 S200
M105
M109 S200
M82 ;absolute extrusion mode
; Ender 3 Custom Start G-code
G92 E0 ; Reset Extruder
G28 ; Home all axes
G1 Z2.0 F3000 ; Move Z Axis up little to prevent scratching of Heat Bed
G1 X0.1 Y20 Z0.3 F5000.0 ; Move to start position
G1 X0.1 Y200.0 Z0.3 F1500.0 E15 ; Draw the first line
G1 X0.4 Y200.0 Z0.3 F5000.0 ; Move to side a little
G1 X0.4 Y20 Z0.3 F1500.0 E30 ; Draw the second line
G92 E0 ; Reset Extruder
G1 Z2.0 F3000 ; Move Z Axis up little to prevent scratching of Heat Bed
G1 X5 Y20 Z0.3 F5000.0 ; Move over to prevent blob squish
G92 E0
G92 E0
G1 F2700 E-5
;LAYER_COUNT:186
;LAYER:0
M107
G0 F6000 X15.06 Y73.251 Z0.32
G0 X5.001 Y86.005
;TYPE:SKIRT
G1 F2700 E0
G1 F1200 X5.01 Y85.34 E0.08848
G1 X5.064 Y84.341 E0.22158
G1 X5.197 Y83.351 E0.35447
G1 X5.409 Y82.373 E0.48761
G1 X5.698 Y81.416 E0.62061
G1 X6.063 Y80.486 E0.75352
G1 X6.501 Y79.587 E0.88657
G1 X7.009 Y78.726 E1.01957
G1 X7.585 Y77.909 E1.15256
G1 X8.224 Y77.14 E1.28558
G1 X8.923 Y76.425 E1.41861
G1 X9.676 Y75.767 E1.55165
G1 X10.48 Y75.173 E1.68464
G1 X11.328 Y74.644 E1.81761
G1 X12.217 Y74.185 E1.95072
G1 X13.139 Y73.798 E2.08375
G1 X14.088 Y73.486 E2.21665
G1 X15.06 Y73.251 E2.34969
G1 X16.048 Y73.095 E2.48276
G1 X17.159 Y73.014 E2.63096
G1 X17.83 Y73 E2.72025
G1 X216.972 Y73.001 E29.21421
G1 X217.67 Y73.011 E29.30708
G1 X218.668 Y73.066 E29.44006
G1 X219.659 Y73.199 E29.57309
G1 X220.636 Y73.412 E29.70612
G1 X221.593 Y73.702 E29.83916
G1 X222.523 Y74.068 E29.97212
G1 X223.422 Y74.507 E30.10522
G1 X224.282 Y75.016 E30.23818
G1 X225.099 Y75.592 E30.37117
G1 X225.868 Y76.232 E30.50427
G1 X226.582 Y76.931 E30.63721
G1 X227.239 Y77.685 E30.77026
G1 X227.833 Y78.489 E30.90325
G1 X228.361 Y79.338 E31.03626
G1 X228.82 Y80.227 E31.16937
G1 X229.206 Y81.149 E31.30235
G1 X229.517 Y82.099 E31.43534
G1 X229.751 Y83.071 E31.56835
G1 X229.906 Y84.059 E31.7014
G1 X229.986 Y85.159 E31.84813
G1 X230 Y85.83 E31.93742
G1 X230 Y100.774 E33.92558
G1 X229.986 Y101.716 E34.05091
G1 X229.93 Y102.714 E34.1839
G1 X229.839 Y103.437 E34.28084
G1 X229.777 Y103.832 E34.33404
G1 X229.416 Y106.371 E34.67523
G1 X229.135 Y108.838 E35.00556
G1 X228.925 Y111.305 E35.33496
G1 X228.785 Y113.772 E35.6637
G1 X228.715 Y116.245 E35.99284
G1 X228.715 Y118.72 E36.32211
G1 X228.785 Y121.203 E36.65258
G1 X228.923 Y123.656 E36.97945
G1 X229.135 Y126.138 E37.31086
G1 X229.412 Y128.581 E37.63796
G1 X229.863 Y131.723 E38.06026
G1 X229.984 Y133.122 E38.24707
G1 X230 Y133.83 E38.34129
G1 X229.999 Y148.919 E40.34874
G1 X229.99 Y149.646 E40.44547
G1 X229.938 Y150.644 E40.57842
G1 X229.806 Y151.635 E40.71143
G1 X229.595 Y152.613 E40.84454
G1 X229.307 Y153.57 E40.9775
G1 X228.943 Y154.501 E41.11049
G1 X228.506 Y155.4 E41.24347
G1 X227.998 Y156.262 E41.37659
G1 X227.424 Y157.08 E41.50954
G1 X226.785 Y157.849 E41.64255
G1 X226.088 Y158.566 E41.77559
G1 X225.335 Y159.224 E41.90863
G1 X224.532 Y159.819 E42.04159
G1 X223.684 Y160.349 E42.17463
G1 X222.796 Y160.809 E42.30768
G1 X221.875 Y161.197 E42.44064
G1 X220.925 Y161.51 E42.57371
G1 X219.954 Y161.746 E42.70666
G1 X218.967 Y161.904 E42.83964
G1 X217.841 Y161.986 E42.98984
G1 X217.17 Y162 E43.07913
G1 X18.046 Y161.999 E69.57069
G1 X17.348 Y161.99 E69.66356
G1 X16.349 Y161.937 E69.79666
G1 X15.358 Y161.805 E69.92967
G1 X14.381 Y161.593 E70.06267
G1 X13.424 Y161.305 E70.19563
G1 X12.493 Y160.94 E70.32867
G1 X11.594 Y160.503 E70.46166
G1 X10.733 Y159.995 E70.59466
G1 X9.915 Y159.42 E70.72768
G1 X9.146 Y158.781 E70.8607
G1 X8.43 Y158.083 E70.99373
G1 X7.772 Y157.33 E71.12677
G1 X7.177 Y156.527 E71.25973
G1 X6.648 Y155.678 E71.39281
G1 X6.188 Y154.791 E71.52575
G1 X5.801 Y153.869 E71.65878
G1 X5.488 Y152.919 E71.79185
G1 X5.253 Y151.948 E71.92476
G1 X5.096 Y150.96 E72.05785
G1 X5.014 Y149.829 E72.20872
G1 X5 Y149.158 E72.29801
G1 X5 Y134.207 E74.2871
G1 X5.014 Y133.279 E74.41057
G1 X5.07 Y132.281 E74.54356
G1 X5.161 Y131.563 E74.63984
G1 X5.223 Y131.168 E74.69304
G1 X5.584 Y128.629 E75.03422
G1 X5.865 Y126.162 E75.36456
G1 X6.075 Y123.695 E75.69396
G1 X6.215 Y121.228 E76.0227
G1 X6.285 Y118.755 E76.35184
G1 X6.285 Y116.28 E76.68111
G1 X6.215 Y113.797 E77.01158
G1 X6.077 Y111.346 E77.33818
G1 X5.865 Y108.855 E77.67078
G1 X5.59 Y106.44 E77.99415
G1 X5.135 Y103.262 E78.42127
G1 X5.014 Y101.842 E78.61087
G1 X5 Y101.17 E78.70029
G1 X5.001 Y86.005 E80.71785
G0 F6000 X6.001 Y86.018
G1 F1200 X6.01 Y85.353 E80.80633
G1 X6.063 Y84.396 E80.93385
G1 X6.196 Y83.446 E81.06147
G1 X6.407 Y82.511 E81.18899
G1 X6.695 Y81.596 E81.31661
G1 X7.059 Y80.709 E81.44417
G1 X7.495 Y79.855 E81.57173
G1 X8.001 Y79.04 E81.69936
G1 X8.573 Y78.27 E81.82697
G1 X9.207 Y77.551 E81.95451
G1 X9.899 Y76.887 E82.0821
G1 X10.644 Y76.283 E82.20969
G1 X11.436 Y75.743 E82.33722
G1 X12.271 Y75.271 E82.46483
G1 X13.142 Y74.87 E82.5924
G1 X14.044 Y74.544 E82.72
G1 X14.969 Y74.293 E82.84751
G1 X15.913 Y74.12 E82.97519
G1 X17.187 Y74.014 E83.14527
G1 X17.83 Y74 E83.23084
G1 X216.958 Y74.001 E109.72294
G1 X217.656 Y74.011 E109.81581
G1 X218.613 Y74.065 E109.94333
G1 X219.563 Y74.198 E110.07095
G1 X220.498 Y74.41 E110.1985
G1 X221.412 Y74.699 E110.32603
G1 X222.299 Y75.064 E110.45364
G1 X223.153 Y75.5 E110.58121
G1 X223.967 Y76.007 E110.70879
G1 X224.737 Y76.58 E110.83649
G1 X225.455 Y77.214 E110.96392
G1 X226.119 Y77.907 E111.09161
G1 X226.722 Y78.652 E111.21912
G1 X227.262 Y79.445 E111.34676
G1 X227.733 Y80.28 E111.4743
G1 X228.133 Y81.152 E111.60194
G1 X228.459 Y82.053 E111.72941
G1 X228.709 Y82.979 E111.85702
G1 X228.881 Y83.923 E111.98468
G1 X228.986 Y85.187 E112.15342
G1 X229 Y85.83 E112.23898
G1 X229 Y100.774 E114.22714
G1 X228.986 Y101.7 E114.35035
G1 X228.931 Y102.657 E114.47788
G1 X228.851 Y103.283 E114.56184
G1 X228.422 Y106.258 E114.96173
G1 X228.138 Y108.746 E115.29489
G1 X227.93 Y111.199 E115.6224
G1 X227.785 Y113.758 E115.9634
G1 X227.715 Y116.216 E116.29055
G1 X227.715 Y118.749 E116.62754
G1 X227.785 Y121.215 E116.95575
G1 X227.926 Y123.725 E117.29021
G1 X228.14 Y126.233 E117.62509
G1 X228.423 Y128.733 E117.95981
G1 X228.873 Y131.865 E118.38077
G1 X228.985 Y133.152 E118.55264
G1 X229 Y133.83 E118.64287
G1 X228.999 Y148.906 E120.64859
G1 X228.99 Y149.633 E120.74531
G1 X228.938 Y150.591 E120.87295
G1 X228.807 Y151.541 E121.00054
G1 X228.597 Y152.476 E121.12803
G1 X228.309 Y153.391 E121.25565
G1 X227.947 Y154.279 E121.38323
G1 X227.512 Y155.134 E121.51086
G1 X227.007 Y155.949 E121.63841
G1 X226.435 Y156.719 E121.76603
G1 X225.802 Y157.439 E121.89357
G1 X225.111 Y158.104 E122.02116
G1 X224.367 Y158.709 E122.14874
G1 X223.575 Y159.25 E122.27634
G1 X222.741 Y159.723 E122.4039
G1 X221.87 Y160.125 E122.53152
G1 X220.969 Y160.452 E122.65904
G1 X220.044 Y160.704 E122.78659
G1 X219.1 Y160.878 E122.9143
G1 X217.813 Y160.986 E123.08612
G1 X217.17 Y161 E123.17169
G1 X18.059 Y160.999 E149.66152
G1 X17.361 Y160.99 E149.75439
G1 X16.403 Y160.938 E149.88203
G1 X15.453 Y160.806 E150.00963
G1 X14.518 Y160.595 E150.13716
G1 X13.603 Y160.307 E150.26478
G1 X12.715 Y159.944 E150.39241
G1 X11.861 Y159.509 E150.51991
G1 X11.046 Y159.003 E150.64754
G1 X10.276 Y158.432 E150.77507
G1 X9.556 Y157.798 E150.90271
G1 X8.892 Y157.107 E151.0302
G1 X8.287 Y156.362 E151.15788
G1 X7.747 Y155.57 E151.28541
G1 X7.275 Y154.736 E151.4129
G1 X6.873 Y153.865 E151.54053
G1 X6.546 Y152.963 E151.66817
G1 X6.295 Y152.038 E151.79569
G1 X6.121 Y151.095 E151.92326
G1 X6.013 Y149.802 E152.09588
G1 X6 Y149.158 E152.18158
G1 X6 Y134.207 E154.17067
G1 X6.014 Y133.295 E154.29201
G1 X6.07 Y132.338 E154.41955
G1 X6.149 Y131.717 E154.50284
G1 X6.578 Y128.742 E154.90272
G1 X6.862 Y126.254 E155.23588
G1 X7.07 Y123.801 E155.5634
G1 X7.215 Y121.242 E155.9044
G1 X7.285 Y118.784 E156.23154
G1 X7.285 Y116.251 E156.56853
G1 X7.215 Y113.783 E156.89701
G1 X7.074 Y111.276 E157.23107
G1 X6.86 Y108.767 E157.56608
G1 X6.579 Y106.289 E157.89787
G1 X6.125 Y103.121 E158.32365
G1 X6.014 Y101.813 E158.49829
G1 X6 Y101.17 E158.58385
G1 X6.001 Y86.018 E160.59968
G0 F6000 X7.001 Y86.032
G1 F1200 X7.01 Y85.367 E160.68816
G1 X7.062 Y84.452 E160.81009
G1 X7.194 Y83.545 E160.93203
G1 X7.405 Y82.654 E161.05385
G1 X7.692 Y81.784 E161.17573
G1 X8.054 Y80.942 E161.29766
G1 X8.489 Y80.135 E161.41963
G1 X8.991 Y79.369 E161.54148
G1 X9.559 Y78.65 E161.66338
G1 X10.187 Y77.983 E161.78526
G1 X10.871 Y77.373 E161.90719
G1 X11.606 Y76.825 E162.02916
G1 X12.386 Y76.344 E162.15108
G1 X13.204 Y75.932 E162.27293
G1 X14.055 Y75.593 E162.3948
G1 X14.933 Y75.33 E162.51674
G1 X15.83 Y75.144 E162.63861
G1 X16.74 Y75.037 E162.76051
G1 X17.215 Y75.013 E162.82379
G1 X17.83 Y75 E162.90563
G1 X216.943 Y75.001 E189.39573
G1 X217.641 Y75.011 E189.4886
G1 X218.556 Y75.064 E189.61054
G1 X219.463 Y75.197 E189.7325
G1 X220.354 Y75.408 E189.85431
G1 X221.224 Y75.696 E189.97624
G1 X222.066 Y76.059 E190.09822
G1 X222.872 Y76.494 E190.22007
G1 X223.638 Y76.997 E190.34199
G1 X224.357 Y77.566 E190.46398
G1 X225.023 Y78.194 E190.58576
G1 X225.632 Y78.879 E190.7077
G1 X226.179 Y79.614 E190.82959
G1 X226.66 Y80.394 E190.95151
G1 X227.071 Y81.213 E191.07342
G1 X227.41 Y82.064 E191.19529
G1 X227.672 Y82.942 E191.31719
G1 X227.857 Y83.84 E191.43917
G1 X227.963 Y84.75 E191.56105
G1 X227.987 Y85.215 E191.623
G1 X228 Y85.83 E191.70484
G1 X227.999 Y100.944 E193.71561
G1 X227.987 Y101.683 E193.81394
G1 X227.932 Y102.598 E193.9359
G1 X227.863 Y103.129 E194.00713
G1 X227.433 Y106.111 E194.40796
G1 X227.143 Y108.655 E194.74861
G1 X226.929 Y111.162 E195.08336
G1 X226.787 Y113.674 E195.41809
G1 X226.715 Y116.224 E195.75748
G1 X226.715 Y118.741 E196.09234
G1 X226.787 Y121.301 E196.43306
G1 X226.928 Y123.795 E196.76539
G1 X227.143 Y126.324 E197.10306
G1 X227.427 Y128.822 E197.43754
G1 X227.884 Y132.008 E197.86575
G1 X227.985 Y133.182 E198.02251
G1 X228 Y133.83 E198.10875
G1 X227.999 Y148.894 E200.11287
G1 X227.99 Y149.621 E200.2096
G1 X227.939 Y150.536 E200.33152
G1 X227.808 Y151.443 E200.45344
G1 X227.599 Y152.335 E200.57532
G1 X227.312 Y153.205 E200.6972
G1 X226.951 Y154.047 E200.81909
G1 X226.518 Y154.855 E200.94105
G1 X226.016 Y155.621 E201.06289
G1 X225.449 Y156.341 E201.18481
G1 X224.821 Y157.009 E201.30679
G1 X224.138 Y157.619 E201.42862
G1 X223.404 Y158.168 E201.55057
G1 X222.625 Y158.65 E201.67244
G1 X221.807 Y159.063 E201.79435
G1 X220.956 Y159.403 E201.91627
G1 X220.079 Y159.667 E202.03812
G1 X219.182 Y159.854 E202.16002
G1 X218.272 Y159.962 E202.28194
G1 X217.785 Y159.987 E202.34682
G1 X217.17 Y160 E202.42865
G1 X18.072 Y159.999 E228.91676
G1 X17.374 Y159.99 E229.00963
G1 X16.459 Y159.938 E229.13156
G1 X15.552 Y159.807 E229.25348
G1 X14.66 Y159.597 E229.37539
G1 X13.79 Y159.31 E229.49728
G1 X12.948 Y158.949 E229.61916
G1 X12.141 Y158.515 E229.74106
G1 X11.374 Y158.013 E229.86302
G1 X10.655 Y157.445 E229.98492
G1 X9.987 Y156.817 E230.1069
G1 X9.377 Y156.134 E230.22873
G1 X8.829 Y155.4 E230.3506
G1 X8.347 Y154.62 E230.47258
G1 X7.935 Y153.802 E230.59443
G1 X7.595 Y152.951 E230.71635
G1 X7.332 Y152.073 E230.83829
G1 X7.145 Y151.176 E230.96019
G1 X7.038 Y150.266 E231.08209
G1 X7.013 Y149.775 E231.1475
G1 X7 Y149.158 E231.22961
G1 X7.001 Y134.032 E233.24198
G1 X7.013 Y133.312 E233.33778
G1 X7.069 Y132.397 E233.45974
G1 X7.137 Y131.871 E233.5303
G1 X7.567 Y128.889 E233.93113
G1 X7.857 Y126.345 E234.27178
G1 X8.071 Y123.838 E234.60652
G1 X8.213 Y121.326 E234.94125
G1 X8.285 Y118.776 E235.28064
G1 X8.285 Y116.259 E235.61551
G1 X8.213 Y113.699 E235.95623
G1 X8.072 Y111.204 E236.28869
G1 X7.857 Y108.676 E236.62623
G1 X7.572 Y106.171 E236.96165
G1 X7.115 Y102.979 E237.39064
G1 X7.013 Y101.785 E237.55007
G1 X7 Y101.17 E237.63191
G1 X7.001 Y86.032 E239.64588
G1 F2700 E234.64588
;MESH:rial imp 2.stl
G0 F6000 X16.835 Y86.514
G0 X18.514 Y86.514
G0 X20 Y99
;TYPE:WALL-INNER
G1 F2700 E239.64588
G1 F1200 X215 Y99 E265.58878
G1 X215 Y93.5 E266.32051
G1 X215 Y88 E267.05223
G1 X20 Y88 E292.99514
G1 X20 Y99 E294.45858
G0 F6000 X19.57 Y99.43
G0 X19 Y100
G1 F1200 X216 Y100 E320.66757
G1 X216 Y93.5 E321.53233
G1 X216 Y87 E322.39709
G1 X19 Y87 E348.60608
G1 X19 Y100 E350.33561
G0 F6000 X19.57 Y99.43
G0 X18.57 Y100.43
G0 X18 Y101
;TYPE:WALL-OUTER
G1 F1200 X217 Y101 E376.81068
G1 X217 Y93.5 E377.80848
G1 X217 Y86 E378.80628
G1 X18 Y86 E405.28135
G1 X18 Y101 E407.27696
G0 F6000 X18.57 Y100.43
G0 X20.4 Y98.1
G0 X20.9 Y98.1
;TYPE:SKIN
G1 F1200 X214.1 Y98.1 E432.98039
G1 X214.1 Y93.5 E433.59238
G1 X214.1 Y88.9 E434.20436
G1 X20.9 Y88.9 E459.9078
G1 X20.9 Y98.1 E461.13177
G0 F6000 X20.4 Y98.1
G0 X20.472 Y98.528
G0 X22.645 Y98.6
G0 X22.645 Y97.599
G1 F1200 X21.399 Y96.353 E461.3662
G0 F6000 X20.4 Y96.353
G0 X20.4 Y94.938
G0 X21.399 Y94.938
G1 F1200 X24.06 Y97.599 E461.86686
G0 F6000 X24.06 Y98.6
G0 X25.474 Y98.6
G0 X25.474 Y97.599
G1 F1200 X21.399 Y93.524 E462.63357
G0 F6000 X20.4 Y93.524
G0 X20.4 Y92.11
G0 X21.399 Y92.11
G1 F1200 X26.888 Y97.599 E463.66631
G0 F6000 X26.888 Y98.6
G0 X28.302 Y98.6
G0 X28.302 Y97.599
G1 F1200 X21.399 Y90.696 E464.96509
G0 F6000 X20.4 Y90.696
G0 X20.472 Y88.472
G0 X21.517 Y88.4
G0 X21.517 Y89.4
G1 F1200 X29.716 Y97.599 E466.50772
G0 F6000 X29.716 Y98.6
G0 X31.131 Y98.6
G0 X31.131 Y97.599
G1 F1200 X22.932 Y89.4 E468.05034
G0 F6000 X22.932 Y88.4
G0 X24.346 Y88.4
G0 X24.346 Y89.4
G1 F1200 X32.545 Y97.599 E469.59296
G0 F6000 X32.545 Y98.6
G0 X33.959 Y98.6
G0 X33.959 Y97.599
G1 F1200 X25.76 Y89.4 E471.13558
G0 F6000 X25.76 Y88.4
G0 X27.174 Y88.4
G0 X27.174 Y89.4
G1 F1200 X35.373 Y97.599 E472.67821
G0 F6000 X35.373 Y98.6
G0 X36.787 Y98.6
G0 X36.787 Y97.599
G1 F1200 X28.589 Y89.4 E474.22074
G0 F6000 X28.589 Y88.4
G0 X30.003 Y88.4
G0 X30.003 Y89.4
G1 F1200 X38.202 Y97.599 E475.76336
G0 F6000 X38.202 Y98.6
G0 X39.616 Y98.6
G0 X39.616 Y97.599
G1 F1200 X31.417 Y89.4 E477.30598
G0 F6000 X31.417 Y88.4
G0 X32.831 Y88.4
G0 X32.831 Y89.4
G1 F1200 X41.03 Y97.599 E478.84861
G0 F6000 X41.03 Y98.6
G0 X42.444 Y98.6
G0 X42.444 Y97.599
G1 F1200 X34.245 Y89.4 E480.39123
G0 F6000 X34.245 Y88.4
G0 X35.66 Y88.4
G0 X35.66 Y89.4
G1 F1200 X43.859 Y97.599 E481.93385
G0 F6000 X43.859 Y98.6
G0 X45.273 Y98.6
G0 X45.273 Y97.599
G1 F1200 X37.074 Y89.4 E483.47648
G0 F6000 X37.074 Y88.4
G0 X38.488 Y88.4
G0 X38.488 Y89.4
G1 F1200 X46.687 Y97.599 E485.0191
G0 F6000 X46.687 Y98.6
G0 X48.101 Y98.6
G0 X48.101 Y97.599
G1 F1200 X39.902 Y89.4 E486.56172
G0 F6000 X39.902 Y88.4
G0 X41.316 Y88.4
G0 X41.316 Y89.4
G1 F1200 X49.515 Y97.599 E488.10435
G0 F6000 X49.515 Y98.6
G0 X50.93 Y98.6
G0 X50.93 Y97.599
G1 F1200 X42.731 Y89.4 E489.64697
G0 F6000 X42.731 Y88.4
G0 X44.145 Y88.4
G0 X44.145 Y89.4
G1 F1200 X52.344 Y97.599 E491.18959
G0 F6000 X52.344 Y98.6
G0 X53.758 Y98.6
G0 X53.758 Y97.599
G1 F1200 X45.559 Y89.4 E492.73222
G0 F6000 X45.559 Y88.4
G0 X46.973 Y88.4
G0 X46.973 Y89.4
G1 F1200 X55.172 Y97.599 E494.27484
G0 F6000 X55.172 Y98.6
G0 X56.586 Y98.6
G0 X56.586 Y97.599
G1 F1200 X48.388 Y89.4 E495.81737
G0 F6000 X48.388 Y88.4
G0 X49.802 Y88.4
G0 X49.802 Y89.4
G1 F1200 X58.001 Y97.599 E497.35999
G0 F6000 X58.001 Y98.6
G0 X59.415 Y98.6
G0 X59.415 Y97.599
G1 F1200 X51.216 Y89.4 E498.90262
G0 F6000 X51.216 Y88.4
G0 X52.63 Y88.4
G0 X52.63 Y89.4
G1 F1200 X60.829 Y97.599 E500.44524
G0 F6000 X60.829 Y98.6
G0 X62.243 Y98.6
G0 X62.243 Y97.599
G1 F1200 X54.044 Y89.4 E501.98786
G0 F6000 X54.044 Y88.4
G0 X55.459 Y88.4
G0 X55.459 Y89.4
G1 F1200 X63.657 Y97.599 E503.53039
G0 F6000 X63.657 Y98.6
G0 X65.072 Y98.6
G0 X65.072 Y97.599
G1 F1200 X56.873 Y89.4 E505.07302
G0 F6000 X56.873 Y88.4
G0 X58.287 Y88.4
G0 X58.287 Y89.4
G1 F1200 X66.486 Y97.599 E506.61564
G0 F6000 X66.486 Y98.6
G0 X67.9 Y98.6
G0 X67.9 Y97.599
G1 F1200 X59.701 Y89.4 E508.15826
G0 F6000 X59.701 Y88.4
G0 X61.115 Y88.4
G0 X61.115 Y89.4
G1 F1200 X69.314 Y97.599 E509.70089
G0 F6000 X69.314 Y98.6
G0 X70.729 Y98.6
G0 X70.729 Y97.599
G1 F1200 X62.53 Y89.4 E511.24351
G0 F6000 X62.53 Y88.4
G0 X63.944 Y88.4
G0 X63.944 Y89.4
G1 F1200 X72.143 Y97.599 E512.78613
G0 F6000 X72.143 Y98.6
G0 X73.557 Y98.6
G0 X73.557 Y97.599
G1 F1200 X65.358 Y89.4 E514.32875
G0 F6000 X65.358 Y88.4
G0 X66.772 Y88.4
