;FLAVOR:Marlin
;TIME:8690
;Filament used: 11.3819m
;Layer height: 0.28
;MINX:45.066
;MINY:96.026
;MINZ:0.32
;MAXX:190.047
;MAXY:138.973
;MAXZ:199.12
;Generated with Cura_SteamEngine main
M140 S60
M105
M190 S60
M104 S200
M105
M109 S200
M82 ;absolute extrusion mode
; Ender 3 Custom Start G-code
G92 E0 ; Reset Extruder
G28 ; Home all axes
G1 Z2.0 F3000 ; Move Z Axis up little to prevent scratching of Heat Bed
G1 X0.1 Y20 Z0.3 F5000.0 ; Move to start position
G1 X0.1 Y200.0 Z0.3 F1500.0 E15 ; Draw the first line
G1 X0.4 Y200.0 Z0.3 F5000.0 ; Move to side a little
G1 X0.4 Y20 Z0.3 F1500.0 E30 ; Draw the second line
G92 E0 ; Reset Extruder
G1 Z2.0 F3000 ; Move Z Axis up little to prevent scratching of Heat Bed
G1 X5 Y20 Z0.3 F5000.0 ; Move over to prevent blob squish
G92 E0
G92 E0
G1 F2700 E-5
;LAYER_COUNT:711
;LAYER:0
M107
G0 F6000 X53.687 Y103.676 Z0.32
G0 X45.156 Y115.973
;TYPE:SKIRT
G1 F2700 E0
G1 F1200 X45.275 Y115.097 E0.11761
G1 X45.381 Y114.46 E0.20353
G1 X45.584 Y113.481 E0.33654
G1 X45.865 Y112.522 E0.46949
G1 X46.222 Y111.588 E0.60252
G1 X46.652 Y110.685 E0.73558
G1 X47.043 Y109.997 E0.84086
G1 X47.546 Y109.189 E0.96749
G1 X47.87 Y108.699 E1.04564
G1 X48.455 Y107.887 E1.17878
G1 X49.102 Y107.125 E1.31178
G1 X49.789 Y106.435 E1.44132
G1 X50.24 Y106.016 E1.52322
G1 X50.999 Y105.366 E1.65616
G1 X51.808 Y104.778 E1.78922
G1 X52.447 Y104.378 E1.88951
G1 X53.009 Y104.05 E1.97608
G1 X53.687 Y103.676 E2.0791
G1 X54.584 Y103.236 E2.21202
G1 X55.514 Y102.868 E2.34508
G1 X56.47 Y102.577 E2.47803
G1 X57.855 Y102.297 E2.66602
G1 X58.691 Y102.186 E2.77822
G1 X59.198 Y102.133 E2.84604
G1 X60.196 Y102.069 E2.97908
G1 X61.601 Y102.114 E3.1661
G1 X62.472 Y102.206 E3.28262
G1 X63.985 Y102.415 E3.48583
G1 X65.17 Y102.594 E3.64527
G1 X67.608 Y102.893 E3.97205
G1 X70.098 Y103.127 E4.30478
G1 X72.56 Y103.289 E4.63304
G1 X74.997 Y103.379 E4.95748
G1 X77.507 Y103.401 E5.29142
G1 X79.979 Y103.353 E5.62036
G1 X82.451 Y103.235 E5.94961
G1 X84.913 Y103.048 E6.2781
G1 X87.39 Y102.788 E6.60945
G1 X89.804 Y102.466 E6.93345
G1 X92.288 Y102.063 E7.26825
G1 X94.694 Y101.603 E7.59414
G1 X97.129 Y101.066 E7.92588
G1 X99.497 Y100.471 E8.25071
G1 X101.898 Y99.796 E8.58253
G1 X104.288 Y99.051 E8.91558
G1 X106.571 Y98.268 E9.23668
G1 X107.384 Y97.961 E9.3523
G1 X107.583 Y97.895 E9.38019
G1 X109.428 Y97.219 E9.64161
G1 X110.037 Y97.012 E9.72718
G1 X111.325 Y96.65 E9.90518
G1 X112.212 Y96.456 E10.02597
G1 X112.884 Y96.325 E10.11706
G1 X114.205 Y96.14 E10.29452
G1 X115.206 Y96.061 E10.42811
G1 X115.869 Y96.027 E10.51643
G1 X117.121 Y96.026 E10.683
G1 X117.672 Y96.053 E10.75639
G1 X118.776 Y96.139 E10.90371
G1 X120.042 Y96.311 E11.07369
G1 X120.587 Y96.414 E11.14748
G1 X121.715 Y96.662 E11.30113
G1 X122.945 Y97.007 E11.47109
G1 X123.783 Y97.295 E11.58898
G1 X125.721 Y98.014 E11.86398
G1 X128.071 Y98.85 E12.19582
G1 X130.42 Y99.611 E12.52433
G1 X132.797 Y100.307 E12.85384
G1 X135.226 Y100.944 E13.18792
G1 X137.619 Y101.5 E13.51477
G1 X140.022 Y101.987 E13.84097
G1 X142.493 Y102.415 E14.1746
G1 X144.934 Y102.768 E14.50273
G1 X147.375 Y103.051 E14.82966
G1 X149.866 Y103.267 E15.16231
G1 X152.312 Y103.411 E15.48829
G1 X154.804 Y103.487 E15.81998
G1 X156.311 Y103.499 E16.02048
G1 X157.402 Y103.499 E16.16563
G1 X159.982 Y103.462 E16.50891
G1 X162.453 Y103.358 E16.83794
G1 X164.939 Y103.181 E17.16952
G1 X167.378 Y102.94 E17.49558
G1 X169.882 Y102.619 E17.83144
G1 X172.152 Y102.272 E18.13695
G1 X172.679 Y102.203 E18.20766
G1 X173.244 Y102.141 E18.28328
G1 X174.241 Y102.071 E18.41625
G1 X175.241 Y102.082 E18.5493
G1 X175.808 Y102.124 E18.62494
G1 X176.659 Y102.216 E18.73882
G1 X177.137 Y102.282 E18.80301
G1 X178.121 Y102.459 E18.93603
G1 X179.088 Y102.713 E19.06904
G1 X180.031 Y103.044 E19.202
G1 X181.223 Y103.59 E19.37643
G1 X181.888 Y103.938 E19.47628
G1 X182.479 Y104.265 E19.56614
G1 X183.328 Y104.794 E19.69923
G1 X184.132 Y105.388 E19.83222
G1 X184.554 Y105.743 E19.90559
G1 X185.031 Y106.162 E19.99005
G1 X185.756 Y106.851 E20.12312
G1 X186.422 Y107.596 E20.25606
G1 X187.218 Y108.672 E20.43413
G1 X187.638 Y109.309 E20.53564
G1 X188.023 Y109.924 E20.63217
G1 X188.513 Y110.795 E20.76512
G1 X188.932 Y111.703 E20.89817
G1 X189.276 Y112.642 E21.03121
G1 X189.545 Y113.605 E21.16423
G1 X189.69 Y114.307 E21.2596
G1 X189.825 Y115.072 E21.36295
G1 X189.928 Y115.753 E21.45458
G1 X190.028 Y116.748 E21.58762
G1 X190.047 Y117.748 E21.72069
G1 X189.938 Y119.164 E21.90963
G1 X189.819 Y119.996 E22.02144
G1 X189.724 Y120.561 E22.09767
G1 X189.519 Y121.539 E22.23061
G1 X189.236 Y122.498 E22.36363
G1 X188.878 Y123.432 E22.49671
G1 X188.446 Y124.333 E22.62964
G1 X188.156 Y124.851 E22.70862
G1 X187.708 Y125.588 E22.82337
G1 X187.321 Y126.185 E22.91802
G1 X186.744 Y127.002 E23.05109
G1 X186.104 Y127.77 E23.18409
G1 X185.393 Y128.494 E23.3191
G1 X184.927 Y128.932 E23.40418
G1 X184.172 Y129.587 E23.53716
G1 X183.366 Y130.18 E23.67028
G1 X182.661 Y130.623 E23.78106
G1 X182.112 Y130.943 E23.8656
G1 X181.34 Y131.365 E23.98265
G1 X180.439 Y131.799 E24.1157
G1 X179.507 Y132.16 E24.24867
G1 X178.549 Y132.445 E24.38164
G1 X177.401 Y132.681 E24.53757
G1 X176.523 Y132.803 E24.6555
G1 X175.927 Y132.866 E24.73523
G1 X174.929 Y132.931 E24.86829
G1 X173.459 Y132.882 E25.06397
G1 X172.606 Y132.79 E25.17811
G1 X171.628 Y132.654 E25.30947
G1 X169.486 Y132.327 E25.59775
G1 X167.026 Y132.024 E25.9275
G1 X164.581 Y131.792 E26.25425
G1 X162.081 Y131.627 E26.58757
G1 X159.605 Y131.533 E26.91722
G1 X157.483 Y131.508 E27.19955
G1 X156.284 Y131.508 E27.35906
G1 X153.703 Y131.545 E27.70248
G1 X151.233 Y131.649 E28.03138
G1 X148.75 Y131.825 E28.36255
G1 X146.301 Y132.068 E28.68996
G1 X143.833 Y132.384 E29.02099
G1 X141.431 Y132.762 E29.34448
G1 X138.949 Y133.223 E29.68034
G1 X136.572 Y133.733 E30.00377
G1 X134.136 Y134.331 E30.33748
G1 X131.779 Y134.98 E30.66273
G1 X129.385 Y135.713 E30.99582
G1 X127.08 Y136.491 E31.31948
G1 X125.591 Y137.049 E31.53103
G1 X125.346 Y137.13 E31.56536
G1 X123.568 Y137.781 E31.81726
G1 X122.959 Y137.988 E31.90284
G1 X121.68 Y138.348 E32.07961
G1 X120.762 Y138.549 E32.20463
G1 X120.109 Y138.676 E32.29313
G1 X118.784 Y138.861 E32.47112
G1 X118.209 Y138.91 E32.5479
G1 X117.154 Y138.972 E32.6885
G1 X115.832 Y138.973 E32.86438
G1 X114.856 Y138.915 E32.99445
G1 X114.178 Y138.857 E33.08499
G1 X112.884 Y138.677 E33.2588
G1 X111.97 Y138.495 E33.38278
G1 X111.295 Y138.342 E33.47486
G1 X110.12 Y138.015 E33.63713
G1 X109.242 Y137.715 E33.76057
G1 X107.59 Y137.101 E33.99504
G1 X105.158 Y136.238 E34.33836
G1 X102.781 Y135.468 E34.67078
G1 X100.454 Y134.788 E34.99331
G1 X98.028 Y134.151 E35.32701
G1 X95.602 Y133.587 E35.65837
G1 X93.17 Y133.095 E35.98848
G1 X90.782 Y132.681 E36.31092
G1 X88.293 Y132.322 E36.64548
G1 X85.86 Y132.04 E36.97134
G1 X83.396 Y131.826 E37.30039
G1 X80.897 Y131.68 E37.63342
G1 X78.449 Y131.606 E37.95925
G1 X75.98 Y131.6 E38.28773
G1 X73.463 Y131.667 E38.62271
G1 X71.03 Y131.8 E38.94688
G1 X68.571 Y132.004 E39.27515
G1 X66.08 Y132.282 E39.60861
G1 X63.469 Y132.651 E39.95944
G1 X63.053 Y132.716 E40.01545
G1 X62.479 Y132.792 E40.09248
G1 X61.859 Y132.86 E40.17546
G1 X60.861 Y132.93 E40.30856
G1 X59.862 Y132.919 E40.44148
G1 X59.087 Y132.858 E40.5449
G1 X58.509 Y132.791 E40.62232
G1 X57.95 Y132.713 E40.69741
G1 X56.966 Y132.535 E40.83044
G1 X55.999 Y132.28 E40.96349
G1 X55.056 Y131.948 E41.0965
G1 X53.882 Y131.409 E41.26836
G1 X53.213 Y131.059 E41.36881
G1 X52.523 Y130.675 E41.47387
G1 X51.675 Y130.145 E41.60691
G1 X50.872 Y129.549 E41.73995
G1 X50.076 Y128.85 E41.88089
G1 X49.684 Y128.475 E41.95306
G1 X48.99 Y127.755 E42.0861
G1 X48.355 Y126.982 E42.21919
G1 X47.88 Y126.309 E42.32878
G1 X47.523 Y125.766 E42.41524
G1 X47.049 Y125.003 E42.53474
G1 X46.562 Y124.13 E42.66774
G1 X46.147 Y123.22 E42.8008
G1 X45.805 Y122.281 E42.93375
G1 X45.54 Y121.317 E43.06676
G1 X45.416 Y120.718 E43.14814
G1 X45.269 Y119.844 E43.26605
G1 X45.18 Y119.198 E43.35281
G1 X45.083 Y118.203 E43.48581
G1 X45.066 Y117.203 E43.61887
G1 X45.156 Y115.973 E43.78295
G0 F6000 X46.068 Y117.148
G1 F1200 X46.148 Y116.094 E43.92358
G1 X46.261 Y115.261 E44.03541
G1 X46.367 Y114.624 E44.12133
G1 X46.564 Y113.686 E44.24884
G1 X46.838 Y112.767 E44.37642
G1 X47.188 Y111.874 E44.50403
G1 X47.611 Y111.013 E44.63165
G1 X47.897 Y110.518 E44.70771
G1 X48.38 Y109.74 E44.82954
G1 X48.704 Y109.25 E44.90769
G1 X49.266 Y108.473 E45.03527
G1 X49.891 Y107.745 E45.16292
G1 X50.47 Y107.168 E45.27167
G1 X50.921 Y106.749 E45.35357
G1 X51.65 Y106.126 E45.48115
G1 X52.428 Y105.566 E45.60868
G1 X52.951 Y105.242 E45.69053
G1 X53.513 Y104.914 E45.7771
G1 X54.163 Y104.556 E45.87582
G1 X55.024 Y104.135 E46.00333
G1 X55.918 Y103.787 E46.13096
G1 X56.838 Y103.515 E46.2586
G1 X57.997 Y103.287 E46.41575
G1 X58.795 Y103.18 E46.52287
G1 X59.302 Y103.127 E46.59068
G1 X60.259 Y103.067 E46.71825
G1 X61.512 Y103.11 E46.88505
G1 X62.336 Y103.196 E46.99527
G1 X63.681 Y103.381 E47.1759
G1 X65.006 Y103.581 E47.35417
G1 X67.538 Y103.891 E47.69355
G1 X70.008 Y104.124 E48.02362
G1 X72.494 Y104.287 E48.35506
G1 X74.986 Y104.379 E48.68683
G1 X77.518 Y104.402 E49.0237
G1 X80.012 Y104.353 E49.35557
G1 X82.504 Y104.234 E49.68748
G1 X85.022 Y104.042 E50.02345
G1 X87.49 Y103.783 E50.3536
G1 X89.991 Y103.45 E50.68927
G1 X92.42 Y103.055 E51.01667
G1 X94.922 Y102.577 E51.35556
G1 X97.313 Y102.05 E51.68129
G1 X99.794 Y101.427 E52.02161
G1 X102.173 Y100.758 E52.35039
G1 X104.594 Y100.003 E52.68778
G1 X106.923 Y99.204 E53.01536
G1 X107.737 Y98.897 E53.1311
G1 X107.903 Y98.842 E53.15437
G1 X109.475 Y98.263 E53.37724
G1 X110.359 Y97.959 E53.50161
G1 X111.543 Y97.626 E53.66524
G1 X112.404 Y97.437 E53.78252
G1 X113.076 Y97.306 E53.8736
G1 X114.291 Y97.136 E54.03682
G1 X115.257 Y97.06 E54.16574
G1 X115.92 Y97.026 E54.25406
G1 X117.072 Y97.025 E54.40732
G1 X118.031 Y97.079 E54.53511
G1 X118.692 Y97.135 E54.62336
G1 X119.857 Y97.294 E54.77979
G1 X120.805 Y97.481 E54.90834
G1 X121.494 Y97.637 E55.00233
G1 X122.626 Y97.955 E55.15876
G1 X123.435 Y98.233 E55.27257
G1 X125.312 Y98.93 E55.53895
G1 X127.755 Y99.798 E55.88387
G1 X130.147 Y100.573 E56.21839
G1 X132.546 Y101.276 E56.55097
G1 X134.955 Y101.908 E56.88232
G1 X137.404 Y102.476 E57.21678
G1 X139.869 Y102.976 E57.5514
G1 X142.328 Y103.402 E57.88342
G1 X144.778 Y103.757 E58.21278
G1 X147.277 Y104.046 E58.54746
G1 X149.793 Y104.264 E58.88344
G1 X152.26 Y104.409 E59.21222
G1 X154.81 Y104.487 E59.55163
G1 X156.303 Y104.499 E59.75027
G1 X157.416 Y104.499 E59.89834
G1 X160.003 Y104.462 E60.24256
G1 X162.529 Y104.355 E60.57892
G1 X165.001 Y104.18 E60.90862
G1 X167.501 Y103.932 E61.24285
G1 X169.996 Y103.613 E61.57749
G1 X172.303 Y103.26 E61.88799
G1 X172.788 Y103.197 E61.95305
G1 X173.353 Y103.135 E62.02867
G1 X174.309 Y103.07 E62.15615
G1 X175.712 Y103.119 E62.34292
G1 X176.522 Y103.207 E62.45132
G1 X177 Y103.273 E62.51551
G1 X177.944 Y103.444 E62.64315
G1 X178.87 Y103.692 E62.77069
G1 X179.772 Y104.017 E62.89824
G1 X180.759 Y104.476 E63.04306
G1 X181.424 Y104.824 E63.14291
G1 X181.985 Y105.135 E63.22825
G1 X182.799 Y105.643 E63.3559
G1 X183.894 Y106.494 E63.5404
G1 X184.371 Y106.913 E63.62487
G1 X185.065 Y107.575 E63.75247
G1 X185.701 Y108.293 E63.88008
G1 X186.383 Y109.223 E64.03351
G1 X186.803 Y109.86 E64.13502
G1 X187.172 Y110.448 E64.22738
G1 X187.64 Y111.285 E64.35496
G1 X188.037 Y112.158 E64.48254
G1 X188.36 Y113.061 E64.61013
G1 X188.607 Y113.987 E64.73764
G1 X188.705 Y114.48 E64.80451
G1 X188.84 Y115.245 E64.90786
G1 X188.938 Y115.892 E64.99492
G1 X189.032 Y116.847 E65.12259
G1 X189.046 Y117.805 E65.25005
G1 X188.947 Y119.03 E65.41356
G1 X188.833 Y119.83 E65.52107
G1 X188.738 Y120.395 E65.59729
G1 X188.54 Y121.333 E65.72483
G1 X188.264 Y122.252 E65.85249
G1 X187.912 Y123.144 E65.98007
G1 X187.296 Y124.342 E66.15929
G1 X186.869 Y125.044 E66.2686
G1 X186.482 Y125.641 E66.36325
G1 X185.927 Y126.424 E66.49094
G1 X185.309 Y127.157 E66.61849
G1 X184.708 Y127.766 E66.73232
G1 X184.242 Y128.204 E66.81741
G1 X183.517 Y128.831 E66.94493
G1 X182.741 Y129.395 E67.07256
G1 X182.157 Y129.759 E67.16411
G1 X181.608 Y130.079 E67.24865
G1 X180.87 Y130.482 E67.36052
G1 X180.005 Y130.897 E67.48816
G1 X179.109 Y131.239 E67.61575
G1 X178.188 Y131.505 E67.74329
G1 X177.246 Y131.693 E67.87108
G1 X176.418 Y131.808 E67.9823
G1 X175.822 Y131.871 E68.06203
G1 X174.865 Y131.932 E68.18961
G1 X173.551 Y131.886 E68.36453
G1 X172.743 Y131.8 E68.47264
G1 X171.779 Y131.666 E68.60212
G1 X169.618 Y131.337 E68.89294
G1 X167.14 Y131.031 E69.22511
G1 X164.635 Y130.794 E69.55987
G1 X162.149 Y130.629 E69.89133
G1 X159.616 Y130.533 E70.22857
G1 X157.495 Y130.508 E70.51077
G1 X156.27 Y130.508 E70.67374
G1 X153.683 Y130.545 E71.01795
G1 X151.154 Y130.652 E71.35471
G1 X148.69 Y130.827 E71.68335
G1 X146.179 Y131.076 E72.01905
G1 X143.727 Y131.389 E72.34792
G1 X141.199 Y131.787 E72.68839
G1 X138.773 Y132.237 E73.01665
G1 X136.366 Y132.754 E73.34418
G1 X133.884 Y133.364 E73.68421
G1 X131.464 Y134.03 E74.01814
G1 X129.089 Y134.757 E74.34858
G1 X126.77 Y135.539 E74.67417
G1 X125.24 Y136.113 E74.89158
G1 X125.01 Y136.188 E74.92376
G1 X123.521 Y136.737 E75.1349
G1 X122.637 Y137.041 E75.25927
G1 X121.46 Y137.373 E75.42197
G1 X120.9 Y137.499 E75.49833
G1 X119.918 Y137.694 E75.63153
G1 X118.699 Y137.864 E75.79527
G1 X117.759 Y137.939 E75.92073
G1 X117.101 Y137.974 E76.00839
G1 X115.885 Y137.974 E76.17017
G1 X114.941 Y137.918 E76.29598
G1 X114.263 Y137.86 E76.38651
G1 X113.073 Y137.695 E76.54635
G1 X112.191 Y137.519 E76.666
G1 X111.516 Y137.366 E76.75808
G1 X110.435 Y137.066 E76.90733
G1 X109.59 Y136.778 E77.0261
G1 X107.853 Y136.133 E77.27261
G1 X105.485 Y135.292 E77.60693
G1 X103.117 Y134.525 E77.93808
G1 X100.671 Y133.81 E78.27712
G1 X98.299 Y133.188 E78.60336
G1 X95.81 Y132.609 E78.94334
G1 X93.369 Y132.115 E79.27468
G1 X90.917 Y131.69 E79.60575
G1 X88.444 Y131.333 E79.93817
G1 X85.955 Y131.045 E80.27152
G1 X83.438 Y130.826 E80.60765
G1 X80.986 Y130.683 E80.93442
G1 X78.445 Y130.606 E81.27263
G1 X75.955 Y130.6 E81.6039
G1 X73.453 Y130.667 E81.93689
G1 X70.964 Y130.802 E82.26851
G1 X68.449 Y131.011 E82.60426
G1 X65.966 Y131.289 E82.93667
G1 X63.306 Y131.664 E83.29406
G1 X62.898 Y131.728 E83.349
G1 X62.37 Y131.798 E83.41986
G1 X61.75 Y131.866 E83.50284
G1 X60.793 Y131.931 E83.63045
G1 X59.439 Y131.886 E83.81069
G1 X58.647 Y131.801 E83.91666
G1 X58.088 Y131.723 E83.99175
G1 X57.144 Y131.551 E84.11941
G1 X56.219 Y131.301 E84.24689
G1 X55.317 Y130.974 E84.37453
G1 X54.346 Y130.523 E84.51697
G1 X53.677 Y130.173 E84.61742
G1 X53.019 Y129.806 E84.71766
G1 X52.206 Y129.297 E84.84527
G1 X51.439 Y128.721 E84.97288
G1 X50.767 Y128.127 E85.0922
G1 X50.375 Y127.752 E85.16438
G1 X49.711 Y127.061 E85.29187
G1 X49.106 Y126.317 E85.41945
G1 X48.716 Y125.76 E85.50991
G1 X48.155 Y124.896 E85.64696
G1 X47.902 Y124.482 E85.71151
G1 X47.437 Y123.643 E85.83913
G1 X47.043 Y122.769 E85.96668
G1 X46.723 Y121.865 E86.09426
G1 X46.4 Y120.539 E86.27583
G1 X46.26 Y119.708 E86.38794
G1 X46.171 Y119.062 E86.4747
G1 X46.079 Y118.107 E86.60234
G1 X46.068 Y117.148 E86.72993
G0 F6000 X47.07 Y117.096
G1 F1200 X47.141 Y116.216 E86.84739
G1 X47.247 Y115.425 E86.95357
G1 X47.353 Y114.788 E87.03948
G1 X47.543 Y113.892 E87.16133
G1 X47.81 Y113.016 E87.28317
G1 X48.153 Y112.166 E87.40512
G1 X48.75 Y111.039 E87.57479
G1 X49.012 Y110.61 E87.64167
G1 X49.539 Y109.802 E87.77001
G1 X50.077 Y109.06 E87.89194
G1 X50.678 Y108.368 E88.01388
G1 X51.15 Y107.9 E88.10231
G1 X51.601 Y107.481 E88.18421
G1 X52.299 Y106.888 E88.30606
G1 X53.046 Y106.357 E88.42799
G1 X53.455 Y106.105 E88.4919
G1 X54.017 Y105.777 E88.57848
G1 X54.639 Y105.435 E88.67291
G1 X55.463 Y105.034 E88.79483
G1 X56.319 Y104.707 E88.91674
G1 X57.2 Y104.456 E89.03861
G1 X58.14 Y104.276 E89.16594
G1 X58.899 Y104.175 E89.26781
G1 X59.406 Y104.122 E89.33563
G1 X60.321 Y104.066 E89.45759
G1 X61.424 Y104.106 E89.60443
G1 X62.2 Y104.187 E89.70823
G1 X63.686 Y104.392 E89.9078
G1 X64.91 Y104.577 E90.07249
G1 X67.394 Y104.881 E90.40543
G1 X69.917 Y105.119 E90.74258
G1 X72.462 Y105.286 E91.0819
G1 X74.976 Y105.379 E91.41659
G1 X77.528 Y105.402 E91.75612
G1 X80.044 Y105.353 E92.09091
G1 X82.557 Y105.233 E92.42563
G1 X85.095 Y105.039 E92.76427
